X:1
T:Задостойник Пасхи
C:Муз.Макарова
M:3/4
L:1/4
K:C
V:1 clef=treble
%%MIDI program40
V:2 clef=treble
%%MIDI program40
V:3 clef=bass octave=-1
%%MIDI program40
V:4 clef=bass octave=-2
%%MIDI program40
%%tempo {100,120,*140,160,180}
%%score [(1 2) | (4)]
%%player_top
[V:1]d2c | (Bc)d | e3 | d3 | c2c | (B2A) | B3 | ddd | d2d | d2d | 
[V:2]B2A | (GA)B | c3 | B3 | A2A | (G2^F) | G3 | ccc | B2B | c2c | 
w:А-нгел во--пи-я-ше Бла-го-да--тней: Чи-ста-я Де-во ра-дуй-
[V:4]g2g | g2g | ^f3 | g3 | e2c | d3 | g3 | ag/^f/ e/d/ | g2g | (ag/^f/) e/d/ | 
[V:1]d2d | e3 | d3 | (AB)c | B2A | B2z | d3 | c2c | d3 | c3 | ^ccc | 
[V:2]B2B | c3 | B3 | G2G | G2^F | G2z | G3 | G2G | G3 | G3| AAA | 
w:ся, и па-ки ре-ку: Ра-дуй-ся! Твой Сын во-скре-се три-дне-вен
[V:4]g2g | ^f3 | g3 | (cd)e | d2d | g2z | =f3 | e2e | =f3 | e3 | eee | 
[V:1]d3 | (ed^c) | d2d | d2d | d2d |d2d | d3|!f! !>! e2e | d3 | c2c | B2A | !fermata!G2z ||
[V:2]A3 | A3 | A2A | B2B | A2B | c2c | B3 | c2c | B3 | A2A | G2^F | !fermata!G2z ||
w:от гро-ба, и ме-ртвы-я воз-дви-гну-вый, лю-ди-е ве-се-ли-те-ся.
[V:4]^f3 | (g^fe) | ^f2f | g2g | ^f2g | a2a | g3 | ^f2f | g3 | e2c | d2d | !fermata!g2z ||
